X:1
T:Title
%%score { ( 1 3 ) | ( 2 4 ) }
L:1/8
Q:1/4=100
M:2/4
K:D
V:1 treble nm="Grand Piano"
V:3 treble 
V:2 bass 
V:4 bass 
V:1
 D>E F[FA] | [FB] [FA]3 | [Fd]>[Fc] [FB][DF] | [CG]4 | [CE]>[CF] [CG][CA] | [Cc] [CB]3 | B>B AG | %7
w: J.~Lincoln~Hall * * *|||||||
 F4 | D>E FA | B A3 | [Fd]>[Fd] dc | B4 | d>d cB | A d3 | A>A [CG][CE] | D4 |[M:6/8] .D3 .[DF]3 | %17
w: ||||||||||
 B3 A3 | .[B,D]3 .[^A,D]3[K:treble] | F6 | .D3 .[DF]3 | B3 d3 | .c3 .B3 | A6 | .D3 .[DF]3 | B3 A3 | %26
w: |||||||||
 .[B,D]3 .[^A,D]3[K:treble] | F6 | .d3 .c3 | A3 d3 | .B3 .c3 | d6 |] %32
w: ||||||
V:2
 [D,F,]>[D,G,D] [D,A,D][D,D] | [D,D] [D,D]3 | [D,A,]>[D,A,] [D,A,][D,A,] | [E,A,]4 | %4
 [A,,A,]>[A,,A,] [A,,A,][A,,A,] | [A,,A,] [A,,A,]3 | [A,CG]>[A,CG][K:bass] [A,CE][C,A,C] | %7
 [D,A,D]4 | D,>E, F,A, | B, A,3 | [D,A,]>[D,A,] [F,A,E][F,A,E] | [G,B,D]4 | %12
 [^G,B,=F]>[G,B,F] [G,CF][G,DF] | [A,DF] [A,DF]3 | [A,DF]>[A,F][K:bass] [A,,E,][A,,G,] | [D,F,]4 | %16
[M:6/8] z F,F, z F,[F,A,D] | z [G,B,D][G,B,D] z F,F, | z D,D, z D,[D,G,^A,] | A,A,A, A,A,A, | %20
 z F,F, z F,[F,A,D] | z [F,B,D][F,B,D] z [F,B,D][F,B,D] | %22
 z[K:treble] [CE][CEA][K:bass] z [^G,B,D][G,B,D^G] | z [E,A,C][E,A,D] [E,A,][E,A,D][E,A,C] | %24
 z F,F, z F,[F,A,D] | z [G,B,D][G,B,D] z F,F, | z D,D, z D,[D,G,^A,] | A,A,A, A,A,A, | %28
 =F-[G,B,F][G,B,DF] F-[G,B,F][G,B,DF] | [A,DF][A,D][A,D] [A,DF][A,D][A,D] | %30
 [A,EG][A,E][A,EG] [A,EG][A,E][A,EG] | [D,D][D,A,][D,B,] [D,A,]3 |] %32
V:3
 x4 | x4 | x4 | x4 | x4 | x4 | x4 | x4 | x4 | x4 | x4 | x4 | x4 | x4 | x4 | x4 | %16
[M:6/8] z A,[A,DE] z A,A | z GG z [A,DF][A,DF] | z G,[G,B,D] z G,[K:treble]E | z DD DDD | %20
 z A,[A,DE] z A,A | z FF z FF | z Ac z ^GB | z EF [EG]FE | z A,[A,DE] z A,A | z GG z [A,DF][A,DF] | %26
 z G,[G,B,D] z G,[K:treble]E | z DD DDD | z Dd z DB | z FF z FF | z GB z Gc | FFG F3 |] %32
V:4
 x4 | x4 | x4 | x4 | x4 | x4 | x2[K:bass] x2 | x4 | x4 | x4 | x4 | x4 | x4 | x4 | x2[K:bass] x2 | %15
 x4 |[M:6/8] D,3 D,3 | D,3 D,3 | G,,3 G,,3 | D,6 | D,3 D,3 | B,,3 B,,3 | %22
 E,3[K:treble][K:bass] .E,3 | A,,3 A,,3 | D,3 D,3 | D,3 D,3 | G,,3 G,,3 | D,6 | %28
 .[G,B,D]3 .[G,B,D]3 | x6 | x6 | x6 |] %32

